!!!COM: Afame, Rene Djam et al
!!!CDT: 1910-1981
!!!OTL: National Anthem, Cameroon (Chant de Ralliement)
!!!ENC: Davis, Matthew J.
!!Vocal Line Only
**kern
*clefG2
*k[b-e-]
*B-:
*M4/4
=1-
16f
8.d
16f
=2
4b-
8.b-
16b-
8.cc
16cc
8.ff
16ee-
=3
2dd
4b-
8.dd
16b-
=4
8.g
16b-
8.a
16cc
8.b-
16g
8.en
16g
=5
[2f
8f]
16r
16f
8.d
16f
=6
4b-
8.b-
16b-
8.cc
16cc
8.ff
16ee-
=7
2dd
4b-
8.dd
16b-
=8
8.g
16b-
8.b-
16b-
8.a
16g
8.a
16cc
=9
[2b-
4b-]
6f
6g
6a
=10
8.b-
16b-
8.a
16b-
8g
8b-
8.a
16b-
=11
2cc
4r
6f
6a
6b-
=12
4cc
8.cc
16cc
8.cc
16dd
8.ee-
16cc
=13
[2dd
8dd]
16r
16f
8.e-
16f
=14
8.g
16f
8.b-
16a
8.g
16b-
8.a
16b-
=15
2.cc
6f
6a
6g
=16
8.f
16f
8.a
16b-
4cc
8.a
16f
=17
2.b-
==18
!Chorus
8.f
16f
=19
2b-
4f
8.b-
16dd
=20
2ff
4dd
4dd
=21
4cc
8.cc
16cc
8.cc
16b-
8.cc
16ee-
=22
2.dd
8.f
16f
=23
2b-
4f
8.b-
16dd
=24
2ff
4dd
6f
6f
6f
=25
4g
8f
8b-
4a
4cc
=26
2.b-
4r
==|!
*-
